flaticon/emoticons/sick-2.svg

<svg xmlns="http://www.w3.org/2000/svg" width="32" height="32" viewBox="0 0 24 24">
    <path d="M 12 0 C 5.382812 0 0 5.382812 0 12 C 0 18.617188 5.382812 24 12 24 C 18.617188 24 24 18.617188 24 12 C 24 5.382812 18.617188 0 12 0 Z M 12 22.910156 C 5.984375 22.910156 1.089844 18.015625 1.089844 12 C 1.089844 5.984375 5.984375 1.089844 12 1.089844 C 18.015625 1.089844 22.910156 5.984375 22.910156 12 C 22.910156 18.015625 18.015625 22.910156 12 22.910156 Z M 12 22.910156"/>
    <path d="M17.652344 11.875C17.753906 11.957031 17.875 12 18 12 18.15625 12 18.3125 11.933594 18.417969 11.804688 18.613281 11.574219 18.582031 11.226562 18.351562 11.035156L15.578125 8.726562 18.347656 6.417969C18.582031 6.226562 18.613281 5.882812 18.417969 5.652344 18.226562 5.417969 17.882812 5.386719 17.652344 5.582031L14.378906 8.308594C14.253906 8.410156 14.183594 8.566406 14.183594 8.726562 14.183594 8.890625 14.253906 9.042969 14.378906 9.144531zM5.582031 11.804688C5.6875 11.933594 5.84375 12 6 12 6.125 12 6.246094 11.957031 6.347656 11.875L9.621094 9.144531C9.746094 9.042969 9.816406 8.890625 9.816406 8.726562 9.816406 8.566406 9.746094 8.410156 9.621094 8.308594L6.347656 5.582031C6.117188 5.386719 5.773438 5.417969 5.582031 5.652344 5.386719 5.882812 5.417969 6.226562 5.652344 6.417969L8.421875 8.726562 5.652344 11.035156C5.417969 11.226562 5.386719 11.574219 5.582031 11.804688zM16.238281 14.921875C16.03125 14.675781 15.605469 14.675781 15.398438 14.921875L13.089844 17.695312 10.78125 14.921875C10.574219 14.675781 10.152344 14.675781 9.945312 14.921875L7.636719 17.695312 5.328125 14.921875C5.136719 14.691406 4.792969 14.660156 4.558594 14.855469 4.328125 15.046875 4.296875 15.390625 4.488281 15.621094L7.21875 18.894531C7.425781 19.144531 7.847656 19.144531 8.054688 18.894531L10.363281 16.125 12.671875 18.894531C12.878906 19.144531 13.300781 19.144531 13.511719 18.894531L15.816406 16.125 18.125 18.894531C18.234375 19.023438 18.390625 19.089844 18.546875 19.089844 18.667969 19.089844 18.792969 19.050781 18.894531 18.964844 19.125 18.769531 19.15625 18.425781 18.964844 18.195312zM16.238281 14.921875"/>
</svg>

<svg xmlns="http://www.w3.org/2000/svg" width="32" height="32" viewBox="0 0 24 24">
    <path d="M12 0C5.383 0 0 5.383 0 12s5.383 12 12 12 12-5.383 12-12S18.617 0 12 0zm0 22.91C5.984 22.91 1.09 18.016 1.09 12S5.984 1.09 12 1.09 22.91 5.984 22.91 12 18.016 22.91 12 22.91zm0 0"/>
    <path d="M17.652 11.875A.55.55 0 0 0 18 12a.545.545 0 0 0 .352-.965l-2.774-2.308 2.77-2.309a.538.538 0 0 0 .07-.766.538.538 0 0 0-.766-.07L14.38 8.309a.54.54 0 0 0-.195.418c0 .164.07.316.195.418zm0 0M5.582 11.805A.539.539 0 0 0 6 12a.55.55 0 0 0 .348-.125l3.273-2.73a.534.534 0 0 0 .195-.418.54.54 0 0 0-.195-.418L6.348 5.582a.538.538 0 0 0-.766.07.538.538 0 0 0 .07.766l2.77 2.309-2.77 2.308a.542.542 0 0 0-.07.77zm0 0M16.238 14.922a.57.57 0 0 0-.84 0l-2.308 2.773-2.309-2.773a.566.566 0 0 0-.836 0l-2.308 2.773-2.309-2.773a.545.545 0 0 0-.77-.067.545.545 0 0 0-.07.766l2.73 3.274a.56.56 0 0 0 .837 0l2.308-2.77 2.309 2.77c.207.25.629.25.84 0l2.304-2.77 2.309 2.77a.553.553 0 0 0 .77.07.55.55 0 0 0 .07-.77zm0 0"/>
</svg>
